X: 29
T:The Drunken Landlady
M:C
L:1/8
R:Reel
K:D
A | BEEE BAFA | BEEE BAFB | ABAF D3 E | FAAd BAFA |
 BEEE BAFA | BAdA BAFB | A2 Bc dfec | dBAF E3 :| 
|: A | Beef e2 de | fdef dBAF | A2 FA D3 E |
 FAAd BAFA | Beef e2 de | fdef dBAF | A2 Bc dfec | dBAF E2 :|
